assets/img/logo.svg

<svg width="112" height="24" viewBox="0 0 112 24" fill="none" xmlns="http://www.w3.org/2000/svg">
<mask id="mask0" mask-type="alpha" maskUnits="userSpaceOnUse" x="0" y="0" width="112" height="24">
<path d="M0 0H112V24H0V0Z" fill="white"/>
</mask>
<g mask="url(#mask0)">
<path fill-rule="evenodd" clip-rule="evenodd" d="M107.57 23.6813H112V0H107.57V23.6813Z" fill="#404042"/>
<path fill-rule="evenodd" clip-rule="evenodd" d="M30.6403 12.6864H24.0916C24.2614 11.1493 24.5901 9.52745 27.3238 9.52745C30.487 9.52745 30.5608 11.0511 30.6321 12.5244C30.6349 12.5787 30.6373 12.633 30.6403 12.6864ZM27.4779 5.81836H27.262C25.4623 5.81836 22.9771 6.20483 21.3605 8.04468C19.9648 9.60259 19.1646 11.9339 19.1646 14.4417V15.0822C19.1646 15.5 19.2215 17.6941 20.3495 19.8155C21.5203 22.0179 23.4519 23.3296 25.9352 23.6089C26.3622 23.6572 26.822 23.6816 27.3014 23.6816C30.2797 23.6816 33.2118 22.7696 33.3351 22.7305L33.5405 22.6657V19.2981C33.5405 19.2981 29.6745 19.7353 28.3978 19.7764C24.4963 19.9033 24.0375 17.908 23.9903 16.3383H34.9371V13.3308C34.9371 10.8578 34.3082 9.02611 33.0167 7.73215C31.4617 6.15018 29.1466 5.81836 27.4779 5.81836Z" fill="#404042"/>
<path fill-rule="evenodd" clip-rule="evenodd" d="M56.1811 12.7086H49.6326C49.8022 11.1715 50.1313 9.54957 52.8646 9.54957C56.0281 9.54957 56.1019 11.0732 56.1731 12.5465C56.1757 12.6008 56.1783 12.6551 56.1811 12.7086ZM53.019 5.84033H52.8033C51.0034 5.84033 48.5184 6.2268 46.9016 8.06666C45.5058 9.62456 44.7053 11.9559 44.7053 14.4637V15.1041C44.7053 15.522 44.7625 17.7161 45.8903 19.8375C47.0614 22.0399 48.9929 23.3516 51.4759 23.6308C51.903 23.6791 52.363 23.7036 52.8424 23.7036C55.8207 23.7036 58.7528 22.7915 58.8765 22.7524L59.0816 22.6877V19.3201C59.0816 19.3201 55.2155 19.7572 53.9386 19.7984C50.0373 19.9252 49.5786 17.93 49.5311 16.3603H60.4781V13.3528C60.4781 10.8797 59.8493 9.04809 58.558 7.75412C57.0028 6.17215 54.6874 5.84033 53.019 5.84033Z" fill="#404042"/>
<path fill-rule="evenodd" clip-rule="evenodd" d="M100.354 12.7086H93.805C93.9745 11.1715 94.3036 9.54957 97.037 9.54957C100.2 9.54957 100.274 11.0732 100.346 12.5465C100.348 12.6008 100.351 12.6551 100.354 12.7086ZM97.1914 5.84033H96.9757C95.1758 5.84033 92.6908 6.2268 91.0742 8.06666C89.6785 9.62456 88.8779 11.9559 88.8779 14.4637V15.1041C88.8779 15.522 88.9352 17.7161 90.0632 19.8375C91.2343 22.0399 93.1656 23.3516 95.6483 23.6308C96.0756 23.6791 96.5354 23.7036 97.0147 23.7036C99.9931 23.7036 102.925 22.7915 103.049 22.7524L103.254 22.6877V19.3201C103.254 19.3201 99.3879 19.7572 98.111 19.7984C94.21 19.9252 93.751 17.93 93.7038 16.3603H104.651V13.3528C104.651 10.8797 104.022 9.04809 102.73 7.75412C101.175 6.17215 98.8597 5.84033 97.1914 5.84033Z" fill="#404042"/>
<path fill-rule="evenodd" clip-rule="evenodd" d="M37.8567 23.7036H42.287V0H37.8567V23.7036Z" fill="#404042"/>
<path fill-rule="evenodd" clip-rule="evenodd" d="M5.97718 13.2315C7.09649 13.6695 10.1487 14.8679 10.819 15.1506C11.2701 15.3406 11.6063 15.6334 11.8187 16.0213L11.9023 16.174H16.6871L16.6467 15.8278C16.2104 12.0633 13.7592 11.1219 11.3884 10.2115C10.5928 9.90624 9.17369 9.39836 8.13742 9.02766C7.56306 8.82196 7.10925 8.65968 6.99121 8.61395C5.62047 8.08009 4.49757 7.52018 4.64219 6.06839C4.76458 4.8388 5.74195 4.33394 8.0148 4.32558C10.312 4.33068 14.9536 4.73802 15.0003 4.74208L15.3128 4.76989V0.952989L15.0952 0.893557C15.0635 0.885192 10.6758 0.0179253 7.95483 0.000318672L7.84244 0C5.8651 0 4.22498 0.356514 2.96701 1.05982C0.998068 2.16052 0 4.06626 0 6.72303C0 9.64461 1.78749 11.5909 5.97718 13.2315Z" fill="#C02C25"/>
<path fill-rule="evenodd" clip-rule="evenodd" d="M11.8668 18.2354C11.3365 19.3972 9.85684 19.5075 8.36563 19.5075H8.18632C5.80666 19.5075 0.690569 18.9575 0.639306 18.9518L0.320801 18.9174V22.9831L0.539453 23.0403C0.576048 23.0502 4.84282 23.9997 7.96362 23.9997C13.2167 23.9997 16.2138 22.0077 16.6544 18.2354H11.8668Z" fill="#404042"/>
<path fill-rule="evenodd" clip-rule="evenodd" d="M83.1189 9.75352H87.0582V5.99247H83.1189V0H78.6294V16.1927H83.1189V9.75352Z" fill="#C02C25"/>
<path fill-rule="evenodd" clip-rule="evenodd" d="M85.188 19.7282C83.792 19.7282 83.1818 19.2959 83.1243 18.249H78.6311C78.6688 21.9209 81.0493 23.4455 83.28 23.6445C83.442 23.659 83.6227 23.6661 83.8166 23.6661C85.1875 23.6661 87.2025 23.2471 87.2025 23.2471V19.5992C87.2025 19.5992 85.5938 19.7282 85.188 19.7282Z" fill="#404042"/>
<path fill-rule="evenodd" clip-rule="evenodd" d="M71.3303 5.92041C70.6022 5.92041 69.9367 5.95722 69.3523 6.02964C66.9369 6.32831 65.0781 7.69271 63.9775 9.974C62.9746 12.0544 62.8965 14.197 62.8965 14.804C62.8965 15.4079 62.9746 17.539 63.9802 19.6146C65.0807 21.8854 66.9375 23.256 69.3496 23.5788C69.86 23.6469 70.4655 23.6815 71.1496 23.6815C73.2415 23.6815 75.4519 23.357 75.4736 23.3536L75.7216 23.3168V19.536C75.7216 19.536 73.2993 19.7063 72.082 19.7063C70.5699 19.7063 69.9172 19.6059 69.6358 19.5213C67.9314 19.0098 67.7602 16.3277 67.766 15.1995C67.767 15.0646 67.767 14.5435 67.766 14.41C67.7602 13.2541 67.9298 10.5191 69.6243 10.0902C70.1195 9.96492 70.9961 9.89871 72.158 9.89871C73.3712 9.89871 75.7216 10.0722 75.7216 10.0722V6.27374L75.4758 6.23502C75.4562 6.23215 73.4465 5.92041 71.3303 5.92041Z" fill="#404042"/>
</g>
</svg>

<svg width="112" height="24" viewBox="0 0 112 24" fill="none" xmlns="http://www.w3.org/2000/svg"><mask id="a" maskUnits="userSpaceOnUse" x="0" y="0" width="112" height="24"><path d="M0 0h112v24H0V0z" fill="#fff"/></mask><g mask="url(#a)" fill-rule="evenodd" clip-rule="evenodd"><path d="M107.57 23.681H112V0h-4.43v23.681zM30.64 12.686h-6.548c.17-1.537.498-3.159 3.232-3.159 3.163 0 3.237 1.524 3.308 2.997l.008.162zm-3.162-6.868h-.216c-1.8 0-4.285.387-5.902 2.227-1.395 1.558-2.195 3.889-2.195 6.397v.64c0 .418.056 2.612 1.184 4.733 1.171 2.203 3.103 3.515 5.586 3.794.427.048.887.073 1.366.073 2.979 0 5.91-.912 6.034-.951l.206-.065v-3.368s-3.866.437-5.143.478c-3.902.127-4.36-1.868-4.408-3.438h10.947v-3.007c0-2.473-.629-4.305-1.92-5.599-1.555-1.582-3.87-1.914-5.54-1.914zM56.181 12.709h-6.548c.17-1.537.498-3.16 3.232-3.16 3.163 0 3.237 1.524 3.308 2.998l.008.162zM53.02 5.84h-.216c-1.8 0-4.285.387-5.901 2.227-1.396 1.558-2.197 3.889-2.197 6.397v.64c0 .418.058 2.612 1.185 4.733 1.171 2.203 3.103 3.515 5.586 3.794.427.048.887.073 1.366.073 2.979 0 5.91-.913 6.035-.952l.205-.064V19.32s-3.867.437-5.143.478c-3.902.127-4.36-1.868-4.408-3.438h10.947v-3.007c0-2.473-.629-4.305-1.92-5.599-1.555-1.582-3.87-1.914-5.539-1.914zM100.354 12.709h-6.549c.17-1.537.499-3.16 3.232-3.16 3.163 0 3.237 1.524 3.309 2.998l.008.162zM97.191 5.84h-.215c-1.8 0-4.285.387-5.902 2.227-1.395 1.558-2.196 3.889-2.196 6.397v.64c0 .418.057 2.612 1.185 4.733 1.171 2.203 3.103 3.515 5.585 3.794.428.048.887.073 1.367.073 2.978 0 5.91-.913 6.034-.952l.205-.064V19.32s-3.866.437-5.143.478c-3.901.127-4.36-1.868-4.407-3.438h10.947v-3.007c0-2.473-.629-4.305-1.921-5.599-1.555-1.582-3.87-1.914-5.539-1.914zM37.857 23.704h4.43V0h-4.43v23.704z" fill="#404042"/><path d="M5.977 13.232c1.12.438 4.172 1.636 4.842 1.919.451.19.787.482 1 .87l.083.153h4.785l-.04-.346c-.437-3.765-2.888-4.706-5.259-5.617-.795-.305-2.214-.813-3.25-1.183-.575-.206-1.029-.368-1.147-.414-1.37-.534-2.493-1.094-2.349-2.546.123-1.23 1.1-1.734 3.373-1.742 2.297.005 6.939.412 6.985.416l.313.028V.953l-.218-.06C15.063.886 10.675.019 7.955 0h-.113C5.865 0 4.225.357 2.967 1.06.998 2.16 0 4.066 0 6.723c0 2.922 1.787 4.868 5.977 6.509z" fill="#C02C25"/><path d="M11.867 18.235c-.53 1.162-2.01 1.273-3.501 1.273h-.18c-2.38 0-7.495-.55-7.547-.556l-.318-.035v4.066l.218.057c.037.01 4.304.96 7.425.96 5.253 0 8.25-1.992 8.69-5.765h-4.787z" fill="#404042"/><path d="M83.119 9.754h3.94V5.992h-3.94V0h-4.49v16.193h4.49v-6.44z" fill="#C02C25"/><path d="M85.188 19.728c-1.396 0-2.006-.432-2.064-1.479h-4.493c.038 3.672 2.418 5.197 4.649 5.396.162.014.343.021.537.021 1.37 0 3.386-.419 3.386-.419V19.6s-1.61.13-2.015.13zM71.33 5.92c-.728 0-1.393.037-1.978.11-2.415.298-4.274 1.663-5.375 3.944-1.002 2.08-1.08 4.223-1.08 4.83 0 .604.078 2.735 1.083 4.81 1.1 2.271 2.958 3.642 5.37 3.965.51.068 1.116.102 1.8.102 2.091 0 4.302-.324 4.324-.327l.248-.037v-3.781s-2.423.17-3.64.17c-1.512 0-2.165-.1-2.446-.185-1.705-.511-1.876-3.193-1.87-4.322v-.789c-.006-1.156.164-3.89 1.858-4.32.496-.125 1.372-.191 2.534-.191 1.213 0 3.564.173 3.564.173V6.274l-.246-.039c-.02-.003-2.03-.315-4.146-.315z" fill="#404042"/></g></svg>
